svgs/sharp-light/signal-bars-weak.svg

<svg xmlns="http://www.w3.org/2000/svg" viewBox="0 0 640 512"><!--! Font Awesome Pro 6.6.0 by @fontawesome - https://fontawesome.com License - https://fontawesome.com/license (Commercial License) Copyright 2024 Fonticons, Inc. --><path d="M96 416l0 64-32 0 0-64 32 0zM64 384l-32 0 0 32 0 64 0 32 32 0 32 0 32 0 0-32 0-64 0-32-32 0-32 0z"/></svg>

<svg xmlns="http://www.w3.org/2000/svg" viewBox="0 0 640 512"><!--! Font Awesome Pro 6.4.0 by @fontawesome - https://fontawesome.com License - https://fontawesome.com/license (Commercial License) Copyright 2023 Fonticons, Inc. --><path d="M96 416v64H64V416H96zM64 384H32v32 64 32H64 96h32V480 416 384H96 64z"/></svg>
